receipt-text-check-outline.svg

<svg fill="currentColor" viewBox="0 0 24 24"><path d="M13.26 20.74 12 22l-1.5-1.5L9 22l-1.5-1.5L6 22l-1.5-1.5L3 22V2l1.5 1.5L6 2l1.5 1.5L9 2l1.5 1.5L12 2l1.5 1.5L15 2l1.5 1.5L18 2l1.5 1.5L21 2v11.35c-.63-.22-1.3-.35-2-.35V5H5v14h8c0 .57.1 1.22.26 1.74M6 15v2h7.35c.26-.75.65-1.42 1.19-2zm0-2h12v-2H6zm0-4h12V7H6zm17 8.23-1.16-1.41-3.59 3.59-1.59-1.59L15.5 19l2.75 3"/></svg>

<svg  viewBox="0 0 24 24" fill="currentColor"><path  d="M13.26 20.74L12 22L10.5 20.5L9 22L7.5 20.5L6 22L4.5 20.5L3 22V2L4.5 3.5L6 2L7.5 3.5L9 2L10.5 3.5L12 2L13.5 3.5L15 2L16.5 3.5L18 2L19.5 3.5L21 2V13.35C20.37 13.13 19.7 13 19 13V5H5V19H13C13 19.57 13.1 20.22 13.26 20.74M6 15V17H13.35C13.61 16.25 14 15.58 14.54 15H6M6 13H18V11H6V13M6 9H18V7H6V9M23 17.23L21.84 15.82L18.25 19.41L16.66 17.82L15.5 19L18.25 22"/></svg>
